Numix/16/status/indicator-keyboard-De-6.svg

<?xml version="1.0" encoding="UTF-8" standalone="no"?>
<svg
   xmlns:dc="http://purl.org/dc/elements/1.1/"
   xmlns:cc="http://creativecommons.org/ns#"
   xmlns:rdf="http://www.w3.org/1999/02/22-rdf-syntax-ns#"
   xmlns:svg="http://www.w3.org/2000/svg"
   xmlns="http://www.w3.org/2000/svg"
   xmlns:sodipodi="http://sodipodi.sourceforge.net/DTD/sodipodi-0.dtd"
   xmlns:inkscape="http://www.inkscape.org/namespaces/inkscape"
   viewBox="0 0 16 16"
   id="svg2"
   version="1.1"
   inkscape:version="0.91 r13725"
   sodipodi:docname="indicator-keyboard-De-6.svg">
  <metadata
     id="metadata14">
    <rdf:RDF>
      <cc:Work
         rdf:about="">
        <dc:format>image/svg+xml</dc:format>
        <dc:type
           rdf:resource="http://purl.org/dc/dcmitype/StillImage" />
      </cc:Work>
    </rdf:RDF>
  </metadata>
  <defs
     id="defs12" />
  <sodipodi:namedview
     pagecolor="#ffffff"
     bordercolor="#666666"
     borderopacity="1"
     objecttolerance="10"
     gridtolerance="10"
     guidetolerance="10"
     inkscape:pageopacity="0"
     inkscape:pageshadow="2"
     inkscape:window-width="640"
     inkscape:window-height="480"
     id="namedview10"
     showgrid="false"
     inkscape:zoom="14.75"
     inkscape:cx="8"
     inkscape:cy="8"
     inkscape:window-x="65"
     inkscape:window-y="24"
     inkscape:window-maximized="0"
     inkscape:current-layer="svg2" />
  <path
     style="fill:#ececec;fill-opacity:1"
     d="M 1.5996094 0 C 0.71320937 2.9605947e-16 0 0.71320937 0 1.5996094 L 0 14.400391 C 2.9605947e-16 15.286791 0.71320937 16 1.5996094 16 L 14.400391 16 C 15.286791 16 16 15.286791 16 14.400391 L 16 1.5996094 C 16 0.71320937 15.286791 0 14.400391 0 L 1.5996094 0 z M 2.8261719 4.8046875 C 3.3301719 4.8046875 3.7928906 4.8719062 4.2128906 5.0039062 C 4.6328906 5.1359063 4.9929687 5.3336562 5.2929688 5.5976562 C 5.5989687 5.8616562 5.8359062 6.1918906 6.0039062 6.5878906 C 6.1719063 6.9838906 6.2558594 7.4446562 6.2558594 7.9726562 C 6.2558594 8.5066563 6.1719062 8.9711875 6.0039062 9.3671875 C 5.8359063 9.7631875 5.5989687 10.093422 5.2929688 10.357422 C 4.9929688 10.621422 4.6328906 10.819172 4.2128906 10.951172 C 3.7928906 11.083172 3.3301719 11.150391 2.8261719 11.150391 C 2.5741719 11.150391 2.3111562 11.135469 2.0351562 11.105469 C 1.7591562 11.081469 1.5166406 11.042281 1.3066406 10.988281 L 1.3066406 4.9765625 C 1.5166406 4.9165625 1.7591562 4.8736094 2.0351562 4.8496094 C 2.3111563 4.8196094 2.5741719 4.8046875 2.8261719 4.8046875 z M 2.8984375 5.3359375 C 2.5744375 5.3359375 2.3375 5.3452812 2.1875 5.3632812 C 2.0435 5.3812813 1.9539688 5.3924375 1.9179688 5.3984375 L 1.9179688 10.556641 C 1.9539687 10.562641 2.0435 10.573797 2.1875 10.591797 C 2.3375 10.609797 2.5744375 10.619141 2.8984375 10.619141 C 3.3484375 10.619141 3.742125 10.559453 4.078125 10.439453 C 4.414125 10.313453 4.6958281 10.136203 4.9238281 9.9082031 C 5.1518281 9.6802031 5.3235 9.4040781 5.4375 9.0800781 C 5.5515 8.7500781 5.6074219 8.3806562 5.6074219 7.9726562 C 5.6074219 7.5646563 5.5515 7.199 5.4375 6.875 C 5.3235 6.551 5.1518281 6.274875 4.9238281 6.046875 C 4.6958281 5.818875 4.414125 5.6453906 4.078125 5.5253906 C 3.742125 5.3993906 3.3484375 5.3359375 2.8984375 5.3359375 z M 9.3359375 6.3359375 C 9.9059375 6.3359375 10.359313 6.5205781 10.695312 6.8925781 C 11.037313 7.2645781 11.207031 7.8373281 11.207031 8.6113281 C 11.207031 8.6593281 11.205219 8.7078594 11.199219 8.7558594 C 11.199219 8.8038594 11.195453 8.848625 11.189453 8.890625 L 7.921875 8.890625 C 7.939875 9.460625 8.0817031 9.8990779 8.3457031 10.205078 C 8.6097031 10.511078 9.0294687 10.664062 9.6054688 10.664062 C 9.9234687 10.664062 10.175328 10.634219 10.361328 10.574219 C 10.547328 10.514219 10.681625 10.463875 10.765625 10.421875 L 10.875 10.925781 C 10.791 10.973781 10.630484 11.029703 10.396484 11.095703 C 10.168484 11.161703 9.8998906 11.195312 9.5878906 11.195312 C 9.1798906 11.195312 8.8309687 11.135625 8.5429688 11.015625 C 8.2549687 10.895625 8.0180313 10.727719 7.8320312 10.511719 C 7.6460312 10.295719 7.5117344 10.040094 7.4277344 9.7460938 C 7.3437344 9.4460938 7.3007813 9.119625 7.3007812 8.765625 C 7.3007812 8.357625 7.3586562 8.003125 7.4726562 7.703125 C 7.5926562 7.397125 7.7456406 7.1415 7.9316406 6.9375 C 8.1236406 6.7335 8.3400781 6.5842812 8.5800781 6.4882812 C 8.8260781 6.3862812 9.0779375 6.3359375 9.3359375 6.3359375 z M 9.34375 6.8574219 C 9.13375 6.8574219 8.9453437 6.8984219 8.7773438 6.9824219 C 8.6153438 7.0664219 8.4717031 7.1802188 8.3457031 7.3242188 C 8.2257031 7.4622187 8.1286406 7.6245469 8.0566406 7.8105469 C 7.9906406 7.9965469 7.9514531 8.1924844 7.9394531 8.3964844 L 10.603516 8.3964844 C 10.591516 7.9104844 10.477719 7.5317188 10.261719 7.2617188 C 10.045719 6.9917187 9.73975 6.8574219 9.34375 6.8574219 z M 14.425781 8.8242188 L 14.449219 9.1464844 C 14.211319 9.1620844 13.989909 9.1993125 13.787109 9.2578125 C 13.588209 9.3124125 13.411859 9.4005844 13.255859 9.5214844 C 13.099859 9.6384843 12.968581 9.7893625 12.863281 9.9765625 C 12.757981 10.163763 12.685484 10.394969 12.646484 10.667969 C 12.751784 10.613369 12.879144 10.566344 13.027344 10.527344 C 13.175544 10.484444 13.3323 10.462891 13.5 10.462891 C 13.7184 10.462891 13.904541 10.498159 14.056641 10.568359 C 14.208741 10.634659 14.332181 10.722838 14.425781 10.835938 C 14.519381 10.949038 14.586006 11.080316 14.628906 11.228516 C 14.671806 11.376716 14.693359 11.533466 14.693359 11.697266 C 14.693359 11.849366 14.669847 12.000244 14.623047 12.152344 C 14.576247 12.304444 14.503744 12.443559 14.402344 12.568359 C 14.304844 12.689259 14.179444 12.789187 14.027344 12.867188 C 13.879144 12.945188 13.700841 12.984375 13.494141 12.984375 C 13.069041 12.984375 12.745737 12.835463 12.523438 12.539062 C 12.305037 12.238762 12.195313 11.821409 12.195312 11.287109 C 12.195312 10.495409 12.385372 9.8958281 12.763672 9.4863281 C 13.145872 9.0768281 13.700381 8.8554188 14.425781 8.8242188 z M 13.464844 10.794922 C 13.285444 10.794922 13.128688 10.816475 12.992188 10.859375 C 12.859587 10.898375 12.734188 10.9454 12.617188 11 C 12.609388 11.0663 12.605469 11.119203 12.605469 11.158203 L 12.605469 11.292969 C 12.605469 11.476269 12.617225 11.650653 12.640625 11.814453 C 12.667925 11.978253 12.71495 12.121294 12.78125 12.246094 C 12.85145 12.370894 12.943541 12.470822 13.056641 12.544922 C 13.169741 12.615122 13.312781 12.650391 13.488281 12.650391 C 13.632581 12.650391 13.756022 12.624919 13.857422 12.574219 C 13.958822 12.519619 14.041116 12.449081 14.103516 12.363281 C 14.165916 12.277481 14.210981 12.177553 14.238281 12.064453 C 14.269481 11.951353 14.285156 11.833784 14.285156 11.708984 C 14.285156 11.396984 14.214619 11.165778 14.074219 11.017578 C 13.937719 10.869378 13.733944 10.794922 13.464844 10.794922 z "
     id="path4" />
</svg>

<svg xmlns="http://www.w3.org/2000/svg" viewBox="0 0 16 16">
 <path d="m 1.6 0 c -0.886 0 -1.6 0.713 -1.6 1.6 l 0 12.801 c 0 0.886 0.713 1.6 1.6 1.6 l 12.801 0 c 0.886 0 1.6 -0.713 1.6 -1.6 l 0 -12.801 c 0 -0.886 -0.713 -1.6 -1.6 -1.6 l -12.801 0 z m 1.227 4.805 c 0.504 0 0.967 0.067 1.387 0.199 c 0.42 0.132 0.78 0.33 1.08 0.594 c 0.306 0.264 0.543 0.594 0.711 0.99 c 0.168 0.396 0.252 0.857 0.252 1.385 c 0 0.534 -0.084 0.999 -0.252 1.395 c -0.168 0.396 -0.405 0.726 -0.711 0.99 c -0.3 0.264 -0.66 0.462 -1.08 0.594 c -0.42 0.132 -0.883 0.199 -1.387 0.199 c -0.252 0 -0.515 -0.015 -0.791 -0.045 c -0.276 -0.024 -0.519 -0.063 -0.729 -0.117 l 0 -6.01 c 0.21 -0.06 0.453 -0.103 0.729 -0.127 c 0.276 -0.03 0.539 -0.045 0.791 -0.045 z m 0.072 0.531 c -0.324 0 -0.561 0.009 -0.711 0.027 c -0.144 0.018 -0.234 0.029 -0.27 0.035 l 0 5.158 c 0.036 0.006 0.126 0.017 0.27 0.035 c 0.15 0.018 0.387 0.027 0.711 0.027 c 0.45 0 0.844 -0.06 1.18 -0.18 c 0.336 -0.126 0.618 -0.303 0.846 -0.531 c 0.228 -0.228 0.4 -0.504 0.514 -0.828 c 0.114 -0.33 0.17 -0.699 0.17 -1.107 c 0 -0.408 -0.056 -0.774 -0.17 -1.098 c -0.114 -0.324 -0.286 -0.6 -0.514 -0.828 c -0.228 -0.228 -0.51 -0.401 -0.846 -0.521 c -0.336 -0.126 -0.73 -0.189 -1.18 -0.189 z m 6.438 1 c 0.57 0 1.023 0.185 1.359 0.557 c 0.342 0.372 0.512 0.945 0.512 1.719 c 0 0.048 -0.002 0.097 -0.008 0.145 c 0 0.048 -0.004 0.093 -0.01 0.135 l -3.268 0 c 0.018 0.57 0.16 1.01 0.424 1.314 c 0.264 0.306 0.684 0.459 1.26 0.459 c 0.318 0 0.57 -0.03 0.756 -0.09 c 0.186 -0.06 0.32 -0.11 0.404 -0.152 l 0.109 0.504 c -0.084 0.048 -0.245 0.104 -0.479 0.17 c -0.228 0.066 -0.497 0.1 -0.809 0.1 c -0.408 0 -0.757 -0.06 -1.045 -0.18 c -0.288 -0.12 -0.525 -0.288 -0.711 -0.504 c -0.186 -0.216 -0.32 -0.472 -0.404 -0.766 c -0.084 -0.3 -0.127 -0.626 -0.127 -0.98 c 0 -0.408 0.058 -0.762 0.172 -1.063 c 0.12 -0.306 0.273 -0.562 0.459 -0.766 c 0.192 -0.204 0.408 -0.353 0.648 -0.449 c 0.246 -0.102 0.498 -0.152 0.756 -0.152 z m 0.008 0.521 c -0.21 0 -0.398 0.041 -0.566 0.125 c -0.162 0.084 -0.306 0.198 -0.432 0.342 c -0.12 0.138 -0.217 0.3 -0.289 0.486 c -0.066 0.186 -0.105 0.382 -0.117 0.586 l 2.664 0 c -0.012 -0.486 -0.126 -0.865 -0.342 -1.135 c -0.216 -0.27 -0.522 -0.404 -0.918 -0.404 z m 5.082 1.967 l 0.023 0.322 c -0.238 0.016 -0.459 0.053 -0.662 0.111 c -0.199 0.055 -0.375 0.143 -0.531 0.264 c -0.156 0.117 -0.287 0.268 -0.393 0.455 c -0.105 0.187 -0.178 0.418 -0.217 0.691 c 0.105 -0.055 0.233 -0.102 0.381 -0.141 c 0.148 -0.043 0.305 -0.064 0.473 -0.064 c 0.218 0 0.405 0.035 0.557 0.105 c 0.152 0.066 0.276 0.154 0.369 0.268 c 0.094 0.113 0.16 0.244 0.203 0.393 c 0.043 0.148 0.064 0.305 0.064 0.469 c 0 0.152 -0.024 0.303 -0.07 0.455 c -0.047 0.152 -0.119 0.291 -0.221 0.416 c -0.098 0.121 -0.223 0.221 -0.375 0.299 c -0.148 0.078 -0.327 0.117 -0.533 0.117 c -0.425 0 -0.748 -0.149 -0.971 -0.445 c -0.218 -0.3 -0.328 -0.718 -0.328 -1.252 c 0 -0.792 0.19 -1.391 0.568 -1.801 c 0.382 -0.409 0.937 -0.631 1.662 -0.662 z m -0.961 1.971 c -0.179 0 -0.336 0.022 -0.473 0.064 c -0.133 0.039 -0.258 0.086 -0.375 0.141 c -0.008 0.066 -0.012 0.119 -0.012 0.158 l 0 0.135 c 0 0.183 0.012 0.358 0.035 0.521 c 0.027 0.164 0.074 0.307 0.141 0.432 c 0.07 0.125 0.162 0.225 0.275 0.299 c 0.113 0.07 0.256 0.105 0.432 0.105 c 0.144 0 0.268 -0.025 0.369 -0.076 c 0.101 -0.055 0.184 -0.125 0.246 -0.211 c 0.062 -0.086 0.107 -0.186 0.135 -0.299 c 0.031 -0.113 0.047 -0.231 0.047 -0.355 c 0 -0.312 -0.071 -0.543 -0.211 -0.691 c -0.136 -0.148 -0.34 -0.223 -0.609 -0.223 z" style="fill:#ececec;fill-opacity:1"/>
</svg>
